X:215
T: Tom McGuire's #4
S: "Music of Ireland - The Big Session" (DJ Taylor)
Z: B.Black
L: 1/8
M: 6/8
R: jig
K: D
D3 AFA|GFG ABA|DED D2 d|=cAG EcC|
DED AFA|GFG ABc|d2 d fdc|dec d3 :|
d2 a gfe|fdB AFA|dfa gfe|dfB BAc|
d2 a gfe|fdB GFG|EFE gfg|edB A3 :|
